icons/lines/civic--cvc-.svg

<svg xmlns="http://www.w3.org/2000/svg" width="24" height="24" viewBox="0 0 24 24" fill="none" stroke="currentColor" stroke-width="2" stroke-linecap="round" stroke-linejoin="round" >
  <path d="M14.2998 10.1C14.5998 11.2 14.0998 12.2 13.2998 12.7V14.7C13.2998 15.4 12.6998 15.9 12.0998 15.9C11.3998 15.9 10.8998 15.3 10.8998 14.7V12.7C10.1998 12.3 9.7998 11.5 9.7998 10.7C9.7998 9.19999 11.1998 7.99999 12.7998 8.39999C13.3998 8.69999 14.0998 9.29999 14.2998 10.1Z" stroke-miterlimit="10"/>
  <path d="M21.6 9C20.3 5 16.5 2 12 2C6.5 2 2 6.5 2 12C2 17.5 6.5 22 12 22C16.5 22 20.3 19.1 21.5 15" stroke-miterlimit="10"/>
  </svg>

<svg xmlns="http://www.w3.org/2000/svg" width="24" height="24" viewBox="0 0 24 24" fill="none" stroke="currentColor" stroke-width="2" stroke-linecap="round" stroke-linejoin="round">
  <path d="M14.3 10.1a2.31 2.31 0 0 1-1 2.6v2a1.216 1.216 0 0 1-2.4 0v-2c-.7-.4-1.1-1.2-1.1-2a2.384 2.384 0 0 1 3-2.3c.6.3 1.3.9 1.5 1.7" />
  <path d="M21.6 9c-1.3-4-5.1-7-9.6-7C6.5 2 2 6.5 2 12s4.5 10 10 10c4.5 0 8.3-2.9 9.5-7" />
</svg>
